**kern	**kern
*staff1	*staff2
*clefG2	*clefG2
*k[b-e-a-d-]	*k[b-e-a-d-]
*M2/4	*M2/4
*f:	*f:
(4cc	4r
=301	=301
*	*^
8a-L	8FFL	[2FF
8fJ	8FJ	.
8a-L	8FL	.
8ccJ)	8FJ	.
=302	=302	=302
(4.e 4.b- 4.dd-	8FL	2FF_
.	8FJ	.
.	8FL	.
8f) 8a- 8cc	8FJ	.
=303	=303	=303
(8gL 8b- 8ee	8FL	2FF_
8a-J 8cc 8ff	8FJ	.
8b-L 8dd- 8gg	8FL	.
8a-J) 8cc 8ff	8FJ	.
=304	=304	=304
*^	*	*
4ff	4.g 4.b-	8FL	2FF_
.	.	8FJ	.
8eeL	.	8FL	.
(8ccJ	8r	8FJ	.
*v	*v	*	*
=305	=305	=305
8a-L	8FL	2FF]
8fJ	8FJ	.
8a-L	8FL	.
8ccJ)	8FJ	.
=306	=306	=306
*^	*	*
4.dd-	4.e 4.b-	8FFL	2FF
.	.	8FJ	.
.	.	8FL	.
[8a- [8cc	(8f	8FJ	.
*	*	*v	*v
=307	=307	=307
8a-L] 8cc]	4d-	8BB-L
8gJ 8b-	.	8BB-J
8fL 8a-	8cL	8CL
8eJ 8g	8B-J)	8CJ
*v	*v	*
=308	=308
(4e 4g (4B-	8FFL
.	8CJ
8f) 8A-)	8FL
*-	*-
